build/category/ShoppingBagSolid.svg

<svg xmlns="http://www.w3.org/2000/svg" fill="none" viewBox="0 0 24 24" focusable="false"><path d="M0 0H24V24H0z"/><path fill="#74767B" fill-rule="evenodd" d="M7.52552 4L16.4749 4C17.8454 4 18.9806 5.06387 19.0694 6.43152L19.9006 17.2315C19.998 18.7306 18.8083 20 17.3061 20L6.69435 20C5.19212 20 4.00247 18.7306 4.09981 17.2315L4.93098 6.43152C5.01979 5.06387 6.15498 4 7.52552 4ZM9.61964 7.65C9.61964 7.29101 9.32863 7 8.96964 7C8.61066 7 8.31964 7.29101 8.31964 7.65L8.31964 9.6247L8.31964 9.62611L8.31965 9.62781L8.31967 9.63203L8.31982 9.64379C8.31997 9.65307 8.32024 9.66522 8.32073 9.68005C8.32172 9.70969 8.3236 9.75015 8.32715 9.79992C8.33425 9.89923 8.34812 10.0369 8.37536 10.2003C8.42933 10.5241 8.53848 10.9658 8.76326 11.4154C8.98932 11.8675 9.33861 12.3394 9.87471 12.6968C10.4149 13.0569 11.1059 13.2747 11.9696 13.2747C12.8334 13.2747 13.5244 13.0569 14.0646 12.6968C14.6007 12.3394 14.95 11.8675 15.176 11.4154C15.4008 10.9658 15.51 10.5241 15.5639 10.2003C15.5912 10.0369 15.605 9.89923 15.6121 9.79992C15.6157 9.75015 15.6176 9.70969 15.6185 9.68005C15.619 9.66522 15.6193 9.65307 15.6195 9.64379L15.6196 9.63203L15.6196 9.62781L15.6196 9.62611L15.6196 9.6247L15.6196 7.65C15.6196 7.29101 15.3286 7 14.9696 7C14.6107 7 14.3196 7.29101 14.3196 7.65L14.3196 9.62575L14.3193 9.63674C14.3188 9.65104 14.3177 9.67503 14.3154 9.7073C14.3108 9.77205 14.3012 9.86879 14.2816 9.98659C14.2418 10.2253 14.1635 10.5336 14.0133 10.834C13.8643 11.1319 13.6511 11.41 13.3435 11.6151C13.0399 11.8175 12.6059 11.9747 11.9696 11.9747C11.3334 11.9747 10.8994 11.8175 10.5958 11.6151C10.2882 11.41 10.075 11.1319 9.92602 10.834C9.7758 10.5336 9.69745 10.2253 9.65767 9.98659C9.63804 9.86879 9.62847 9.77205 9.62385 9.7073C9.62154 9.67503 9.62049 9.65104 9.62001 9.63674L9.61964 9.62237L9.61964 7.65Z"/></svg>

<svg xmlns="http://www.w3.org/2000/svg" fill="none" viewBox="0 0 24 24" focusable="false"><path fill="#74767B" fill-rule="evenodd" d="M7.52 4h8.95c1.37 0 2.51 1.06 2.59 2.43l.84 10.8A2.61 2.61 0 0 1 17.3 20H6.69a2.61 2.61 0 0 1-2.6-2.77l.84-10.8A2.594 2.594 0 0 1 7.52 4m2.09 3.64c0-.35-.29-.64-.65-.64-.35 0-.65.29-.65.64v2c0 .01.01.02.01.04v.11c.01.1.02.24.05.41.05.32.16.76.39 1.21.22.45.57.92 1.11 1.28s1.23.58 2.09.58c.87 0 1.56-.22 2.1-.58s.89-.83 1.11-1.28c.23-.45.33-.89.39-1.21.03-.17.04-.31.05-.41V7.64c0-.35-.29-.64-.65-.64-.35 0-.65.29-.65.64V9.7a3.058 3.058 0 0 1-.3 1.13c-.15.3-.36.58-.67.78-.3.2-.74.36-1.38.36-.63 0-1.07-.16-1.37-.36-.31-.2-.52-.48-.67-.78a3.1 3.1 0 0 1-.3-1.13v-.07l-.01-.01z"/></svg>
